overrides/.icons/action/disengage.svg

<?xml version="1.0" encoding="UTF-8" standalone="no"?>
<!-- Created with Inkscape (http://www.inkscape.org/) -->

<svg
   viewBox="0 0 24 24"
   version="1.1"
   id="svg1"
   xml:space="preserve"
   inkscape:version="1.3.2 (091e20e, 2023-11-25, custom)"
   sodipodi:docname="disengage.svg"

   xmlns:inkscape="http://www.inkscape.org/namespaces/inkscape"
   xmlns:sodipodi="http://sodipodi.sourceforge.net/DTD/sodipodi-0.dtd"
   xmlns:xlink="http://www.w3.org/1999/xlink"
   xmlns="http://www.w3.org/2000/svg"
   xmlns:svg="http://www.w3.org/2000/svg"><sodipodi:namedview
     id="namedview1"
     pagecolor="#ffffff"
     bordercolor="#666666"
     borderopacity="1.0"
     inkscape:showpageshadow="2"
     inkscape:pageopacity="0.0"
     inkscape:pagecheckerboard="0"
     inkscape:deskcolor="#d1d1d1"
     inkscape:document-units="px"
     inkscape:zoom="2.8284272"
     inkscape:cx="-29.344931"
     inkscape:cy="45.43161"
     inkscape:window-width="1360"
     inkscape:window-height="715"
     inkscape:window-x="-8"
     inkscape:window-y="-8"
     inkscape:window-maximized="1"
     inkscape:current-layer="layer1" /><defs
     id="defs1"><inkscape:path-effect
       effect="fillet_chamfer"
       id="path-effect4"
       is_visible="true"
       lpeversion="1"
       nodesatellites_param="F,0,0,1,0,0,0,1 @ F,0,1,1,0,27.077203,0,1 @ F,0,0,1,0,0,0,1 @ F,0,1,1,0,27.077203,0,1 @ F,0,0,1,0,0,0,1 @ F,0,0,1,0,27.077203,0,1 @ F,0,0,1,0,0,0,1 @ F,0,1,1,0,27.077203,0,1"
       radius="0"
       unit="px"
       method="auto"
       mode="F"
       chamfer_steps="1"
       flexible="false"
       use_knot_distance="true"
       apply_no_radius="true"
       apply_with_radius="true"
       only_selected="false"
       hide_knots="false" /><inkscape:path-effect
       effect="fillet_chamfer"
       id="path-effect3"
       is_visible="true"
       lpeversion="1"
       nodesatellites_param="F,0,0,1,0,0,0,1 @ F,0,0,1,0,0,0,1 @ F,0,0,1,0,0,0,1 @ F,0,0,1,0,0,0,1 @ F,0,0,1,0,0,0,1 @ F,0,0,1,0,0,0,1 @ F,0,0,1,0,0,0,1 @ F,0,0,1,0,0,0,1 @ F,0,0,1,0,0,0,1 @ F,0,0,1,0,0,0,1 @ F,0,0,1,0,0,0,1 @ F,0,0,1,0,0,0,1"
       radius="0"
       unit="px"
       method="auto"
       mode="F"
       chamfer_steps="1"
       flexible="false"
       use_knot_distance="true"
       apply_no_radius="true"
       apply_with_radius="true"
       only_selected="false"
       hide_knots="false" /><inkscape:path-effect
       effect="fillet_chamfer"
       id="path-effect2"
       is_visible="true"
       lpeversion="1"
       nodesatellites_param="F,0,0,1,0,0,0,1 @ F,0,1,1,0,14.213301,0,1 @ F,0,0,1,0,0,0,1 @ F,0,1,1,0,14.213301,0,1 @ F,0,0,1,0,0,0,1 @ F,0,0,1,0,14.213301,0,1 @ F,0,0,1,0,0,0,1 @ F,0,1,1,0,14.213301,0,1"
       radius="0"
       unit="px"
       method="auto"
       mode="F"
       chamfer_steps="1"
       flexible="false"
       use_knot_distance="true"
       apply_no_radius="true"
       apply_with_radius="true"
       only_selected="false"
       hide_knots="false" /><inkscape:path-effect
       effect="fillet_chamfer"
       id="path-effect1"
       is_visible="true"
       lpeversion="1"
       nodesatellites_param="F,0,0,1,0,0,0,1 @ F,0,0,1,0,0,0,1 @ F,0,0,1,0,0,0,1 @ F,0,0,1,0,0,0,1 @ F,0,0,1,0,0,0,1 @ F,0,0,1,0,0,0,1 @ F,0,0,1,0,0,0,1 @ F,0,0,1,0,0,0,1"
       radius="0"
       unit="px"
       method="auto"
       mode="F"
       chamfer_steps="1"
       flexible="false"
       use_knot_distance="true"
       apply_no_radius="true"
       apply_with_radius="true"
       only_selected="false"
       hide_knots="false" /><inkscape:path-effect
       effect="fillet_chamfer"
       id="path-effect4-4"
       is_visible="true"
       lpeversion="1"
       nodesatellites_param="F,0,0,1,0,0,0,1 @ F,0,1,1,0,27.077203,0,1 @ F,0,0,1,0,0,0,1 @ F,0,1,1,0,27.077203,0,1 @ F,0,0,1,0,0,0,1 @ F,0,0,1,0,27.077203,0,1 @ F,0,0,1,0,0,0,1 @ F,0,1,1,0,27.077203,0,1"
       radius="0"
       unit="px"
       method="auto"
       mode="F"
       chamfer_steps="1"
       flexible="false"
       use_knot_distance="true"
       apply_no_radius="true"
       apply_with_radius="true"
       only_selected="false"
       hide_knots="false" /><inkscape:path-effect
       effect="fillet_chamfer"
       id="path-effect4-9"
       is_visible="true"
       lpeversion="1"
       nodesatellites_param="F,0,0,1,0,0,0,1 @ F,0,1,1,0,27.077203,0,1 @ F,0,0,1,0,0,0,1 @ F,0,1,1,0,27.077203,0,1 @ F,0,0,1,0,0,0,1 @ F,0,0,1,0,27.077203,0,1 @ F,0,0,1,0,0,0,1 @ F,0,1,1,0,27.077203,0,1"
       radius="0"
       unit="px"
       method="auto"
       mode="F"
       chamfer_steps="1"
       flexible="false"
       use_knot_distance="true"
       apply_no_radius="true"
       apply_with_radius="true"
       only_selected="false"
       hide_knots="false" /><inkscape:path-effect
       effect="fillet_chamfer"
       id="path-effect4-5"
       is_visible="true"
       lpeversion="1"
       nodesatellites_param="F,0,0,1,0,0,0,1 @ F,0,1,1,0,27.077203,0,1 @ F,0,0,1,0,0,0,1 @ F,0,1,1,0,27.077203,0,1 @ F,0,0,1,0,0,0,1 @ F,0,0,1,0,27.077203,0,1 @ F,0,0,1,0,0,0,1 @ F,0,1,1,0,27.077203,0,1"
       radius="0"
       unit="px"
       method="auto"
       mode="F"
       chamfer_steps="1"
       flexible="false"
       use_knot_distance="true"
       apply_no_radius="true"
       apply_with_radius="true"
       only_selected="false"
       hide_knots="false" /><inkscape:path-effect
       effect="fillet_chamfer"
       id="path-effect4-5-8"
       is_visible="true"
       lpeversion="1"
       nodesatellites_param="F,0,0,1,0,0,0,1 @ F,0,1,1,0,27.077203,0,1 @ F,0,0,1,0,0,0,1 @ F,0,1,1,0,27.077203,0,1 @ F,0,0,1,0,0,0,1 @ F,0,0,1,0,27.077203,0,1 @ F,0,0,1,0,0,0,1 @ F,0,1,1,0,27.077203,0,1"
       radius="0"
       unit="px"
       method="auto"
       mode="F"
       chamfer_steps="1"
       flexible="false"
       use_knot_distance="true"
       apply_no_radius="true"
       apply_with_radius="true"
       only_selected="false"
       hide_knots="false" /><inkscape:path-effect
       effect="fillet_chamfer"
       id="path-effect4-5-8-6"
       is_visible="true"
       lpeversion="1"
       nodesatellites_param="F,0,0,1,0,0,0,1 @ F,0,1,1,0,27.077203,0,1 @ F,0,0,1,0,0,0,1 @ F,0,1,1,0,27.077203,0,1 @ F,0,0,1,0,0,0,1 @ F,0,0,1,0,27.077203,0,1 @ F,0,0,1,0,0,0,1 @ F,0,1,1,0,27.077203,0,1"
       radius="0"
       unit="px"
       method="auto"
       mode="F"
       chamfer_steps="1"
       flexible="false"
       use_knot_distance="true"
       apply_no_radius="true"
       apply_with_radius="true"
       only_selected="false"
       hide_knots="false" /></defs><g
     inkscape:label="Layer 1"
     inkscape:groupmode="layer"
     id="layer1"
     transform="translate(1.2236983,-0.06614588)"><image
       width="6.6145835"
       height="6.6145835"
       preserveAspectRatio="none"
       style="image-rendering:optimizeQuality"
       xlink:href="data:image/png;base64,iVBORw0KGgoAAAANSUhEUgAAABkAAAAZCAYAAADE6YVjAAAABHNCSVQICAgIfAhkiAAAAXZJREFU&#10;SInt1c1KVWEUxvG3c47mB07siMopcpCzkO7AWxARHGjiKBpYEE0bRjMbldSgHDbrDoJyFASCVyCk&#10;iJUaqNBEz6/BXtFG/Gp79iif6eZd/7WeZ73vTulSZQsD6Cwb8A7jZUIeo4mPuH6eM5UCnLWU0k5K&#10;aTSl9AgdBWqcLtTwAPvYxT1UW1W8ihvoRAfmcYjvmLkwCFcxiWU8DGAvXkc+33C/kHVR/A4WsCPT&#10;D8yign68xQH28Bw3jyt0JQ60oRt1DEfni/ga3ea1GRa14RpeRkZNfI4mGqjlQe2x/6N4gk/YdrpW&#10;cDvON/A+920rMus7Ok0NXdHZrZjkFVaPmWQD0zFJPezcly3CEqai6bOXIYqM4EV0RxbyXX8zeRPF&#10;f+IZGv8cfs7OMXzBXAB6ZaE3sRbg9kKAHKiCIdly9ITnB1jHOIq8HifCqrL361dYNNNSQEAmZHel&#10;iacXtugEyJ9X+AMGWw4ISPn/kwANoqtUyP+r33T2WdwzhxiHAAAAAElFTkSuQmCC&#10;"
       id="image1"
       x="174.22902"
       y="132.1955" /><g
       id="g1"
       transform="matrix(0.92508499,0,0,0.92508499,0.55212048,0.81114144)"
       style="stroke-width:1.08098"><path
         id="path3-6"
         style="stroke:none;stroke-width:0.0541792;paint-order:stroke markers fill"
         d="M 19.487614,0.81614601 17.582305,1.3914232 a 11.40914,11.40914 0 0 1 -6.249604,0.096276 L 9.4095637,0.97185171 9.9848407,2.8771604 a 11.409141,11.409141 0 0 1 0.1224243,0.5087164 l 0.543186,0.1450079 a 9.4315546,9.4315546 0 0 0 5.166799,-0.079636 l 1.576069,-0.4742471 -0.426704,1.589144 a 9.4315607,9.4315607 0 0 0 0.07964,5.1667994 l 0.162837,0.53843 a 11.409147,11.409147 0 0 1 0.511094,0.10578 l 1.923136,0.517037 -0.575278,-1.905309 A 11.409146,11.409146 0 0 1 18.971764,2.7380903 Z M 16.172638,4.1905514 14.997122,4.5447509 a 7.0396837,7.0396837 0 0 1 -3.855783,0.05943 l -1.186213,-0.317354 0.3542,1.1755149 A 4.6281539,4.6281539 0 0 1 9.8838116,9.117254 l -2.2404924,3.870049 3.7987318,-2.358162 a 4.6281552,4.6281552 0 0 1 3.64065,-0.538432 l 1.186212,0.318542 -0.354199,-1.176704 a 7.0396874,7.0396874 0 0 1 -0.05944,-3.8557839 z" /><path
         id="path3-6-3"
         style="stroke:none;stroke-width:0.0541792;paint-order:stroke markers fill"
         d="m 2.6166879,23.516763 1.9053097,-0.575278 a 11.409141,11.409141 0 0 1 6.2496054,-0.09627 l 1.923137,0.515848 -0.575276,-1.90531 A 11.409143,11.409143 0 0 1 11.997039,20.947038 L 11.453853,20.80203 A 9.4315562,9.4315562 0 0 0 6.2870529,20.88167 L 4.710984,21.355909 5.1376877,19.766764 A 9.4315623,9.4315623 0 0 0 5.0580519,14.599966 L 4.895214,14.061535 A 11.409149,11.409149 0 0 1 4.3841214,13.955754 l -1.9231366,-0.517035 0.575277,1.905309 a 11.409148,11.409148 0 0 1 0.096274,6.250794 z m 3.3149768,-3.374406 1.175516,-0.3542 a 7.0396849,7.0396849 0 0 1 3.8557843,-0.05943 l 1.186213,0.317353 -0.3542,-1.175515 a 4.6281547,4.6281547 0 0 1 0.425514,-3.654914 l 2.240493,-3.870048 -3.798733,2.358162 a 4.628156,4.628156 0 0 1 -3.6406504,0.538431 l -1.1862118,-0.318541 0.354199,1.176704 a 7.0396886,7.0396886 0 0 1 0.059432,3.855784 z" /></g><path
       id="path3-8"
       style="fill:#800000;stroke-width:0.95506;paint-order:stroke markers fill"
       transform="matrix(0,0,0,0,8.7476343,5.6248682)"
       d="m 100.86819,141.03352 -14.492313,8.0671 a 95.07007,95.07007 135 0 0 -36.82834,36.82834 l -8.067091,14.4923 -8.067091,-14.4923 A 95.070076,95.070076 45.000001 0 0 -3.4149848,149.10062 l -14.4923102,-8.0671 14.4923075,-8.06709 A 95.070023,95.070023 135 0 0 33.413353,96.138091 l 8.067093,-14.492309 8.067093,14.492309 A 95.070017,95.070017 44.999997 0 0 86.37588,132.96643 Z"
       inkscape:original-d="M 100.86819,141.03352 62.71711,162.27019 41.480446,200.42126 20.243782,162.27019 -17.907295,141.03352 20.243782,119.79686 41.480446,81.645782 62.71711,119.79686 Z"
       inkscape:path-effect="#path-effect4-4" /></g></svg>

<?xml version="1.0" encoding="UTF-8"?>
<!-- Created with Inkscape (http://www.inkscape.org/) -->
<svg id="svg1" version="1.1" viewBox="0 0 24 24" xml:space="preserve" xmlns="http://www.w3.org/2000/svg" xmlns:xlink="http://www.w3.org/1999/xlink"><g id="layer1" transform="translate(1.2237 -.066146)"><image id="image1" x="174.23" y="132.2" width="6.6146" height="6.6146" image-rendering="optimizeQuality" preserveAspectRatio="none" xlink:href="data:image/png;base64,iVBORw0KGgoAAAANSUhEUgAAABkAAAAZCAYAAADE6YVjAAAABHNCSVQICAgIfAhkiAAAAXZJREFU
SInt1c1KVWEUxvG3c47mB07siMopcpCzkO7AWxARHGjiKBpYEE0bRjMbldSgHDbrDoJyFASCVyCk
iJUaqNBEz6/BXtFG/Gp79iif6eZd/7WeZ73vTulSZQsD6Cwb8A7jZUIeo4mPuH6eM5UCnLWU0k5K
aTSl9AgdBWqcLtTwAPvYxT1UW1W8ihvoRAfmcYjvmLkwCFcxiWU8DGAvXkc+33C/kHVR/A4WsCPT
D8yign68xQH28Bw3jyt0JQ60oRt1DEfni/ga3ea1GRa14RpeRkZNfI4mGqjlQe2x/6N4gk/YdrpW
cDvON/A+920rMus7Ok0NXdHZrZjkFVaPmWQD0zFJPezcly3CEqai6bOXIYqM4EV0RxbyXX8zeRPF
f+IZGv8cfs7OMXzBXAB6ZaE3sRbg9kKAHKiCIdly9ITnB1jHOIq8HifCqrL361dYNNNSQEAmZHel
iacXtugEyJ9X+AMGWw4ISPn/kwANoqtUyP+r33T2WdwzhxiHAAAAAElFTkSuQmCC
"/><g id="g1" transform="matrix(.92508 0 0 .92508 .55212 .81114)" stroke-width="1.081"><path id="path3-6" d="m19.488 0.81615-1.9053 0.57528a11.409 11.409 0 0 1-6.2496 0.096276l-1.9231-0.51585 0.57528 1.9053a11.409 11.409 0 0 1 0.12242 0.50872l0.54319 0.14501a9.4316 9.4316 0 0 0 5.1668-0.079636l1.5761-0.47425-0.4267 1.5891a9.4316 9.4316 0 0 0 0.07964 5.1668l0.16284 0.53843a11.409 11.409 0 0 1 0.51109 0.10578l1.9231 0.51704-0.57528-1.9053a11.409 11.409 0 0 1-0.09628-6.2508zm-3.315 3.3744-1.1755 0.3542a7.0397 7.0397 0 0 1-3.8558 0.05943l-1.1862-0.31735 0.3542 1.1755a4.6282 4.6282 0 0 1-0.42551 3.6549l-2.2405 3.87 3.7987-2.3582a4.6282 4.6282 0 0 1 3.6406-0.53843l1.1862 0.31854-0.3542-1.1767a7.0397 7.0397 0 0 1-0.05944-3.8558z" style="paint-order:stroke markers fill"/><path id="path3-6-3" d="m2.6167 23.517 1.9053-0.57528a11.409 11.409 0 0 1 6.2496-0.09627l1.9231 0.51585-0.57528-1.9053a11.409 11.409 0 0 1-0.12242-0.50872l-0.54319-0.14501a9.4316 9.4316 0 0 0-5.1668 0.07964l-1.5761 0.47424 0.4267-1.5891a9.4316 9.4316 0 0 0-0.079636-5.1668l-0.16284-0.53843a11.409 11.409 0 0 1-0.51109-0.10578l-1.9231-0.51704 0.57528 1.9053a11.409 11.409 0 0 1 0.096274 6.2508zm3.315-3.3744 1.1755-0.3542a7.0397 7.0397 0 0 1 3.8558-0.05943l1.1862 0.31735-0.3542-1.1755a4.6282 4.6282 0 0 1 0.42551-3.6549l2.2405-3.87-3.7987 2.3582a4.6282 4.6282 0 0 1-3.6407 0.53843l-1.1862-0.31854 0.3542 1.1767a7.0397 7.0397 0 0 1 0.059432 3.8558z" style="paint-order:stroke markers fill"/></g><path id="path3-8" transform="matrix(0 0 0 0 8.7476 5.6249)" d="m100.87 141.03-14.492 8.0671a95.07 95.07 135 0 0-36.828 36.828l-8.0671 14.492-8.0671-14.492a95.07 95.07 45 0 0-36.828-36.828l-14.492-8.0671 14.492-8.0671a95.07 95.07 135 0 0 36.828-36.828l8.0671-14.492 8.0671 14.492a95.07 95.07 45 0 0 36.828 36.828z" fill="#800000" stroke-width=".95506" style="paint-order:stroke markers fill"/></g></svg>
